assets/icons/login.svg

<svg width="26" height="27" viewBox="0 0 26 27" fill="none" xmlns="http://www.w3.org/2000/svg">
<path fill-rule="evenodd" clip-rule="evenodd" d="M13 0.5C5.8203 0.5 0 6.3203 0 13.5C0 20.6797 5.8203 26.5 13 26.5C20.1797 26.5 26 20.6797 26 13.5C26 10.0522 24.6304 6.74558 22.1924 4.30761C19.7544 1.86964 16.4478 0.5 13 0.5ZM13 4.39995C15.1539 4.39995 16.9 6.14604 16.9 8.29995C16.9 10.4539 15.1539 12.2 13 12.2C10.8461 12.2 9.1 10.4539 9.1 8.29995C9.1 6.14604 10.8461 4.39995 13 4.39995ZM12.9997 22.5829C15.8793 22.5829 18.589 21.2199 20.3057 18.908C20.5718 18.5192 20.6066 18.0168 20.3967 17.595L20.0977 16.984C19.4436 15.649 18.0874 14.802 16.6007 14.8H9.39875C7.89091 14.8016 6.51909 15.6723 5.87575 17.036L5.60275 17.608C5.39801 18.0264 5.43273 18.5223 5.69375 18.908C7.41048 21.2199 10.1202 22.5829 12.9997 22.5829Z" fill="white"/>
</svg>

<svg width="26" height="27" fill="none" xmlns="http://www.w3.org/2000/svg"><path fill-rule="evenodd" clip-rule="evenodd" d="M13 .5C5.82.5 0 6.32 0 13.5s5.82 13 13 13 13-5.82 13-13a13 13 0 0 0-13-13Zm0 3.9a3.9 3.9 0 1 1 0 7.8 3.9 3.9 0 0 1 0-7.8Zm0 18.183a9.1 9.1 0 0 0 7.306-3.675 1.3 1.3 0 0 0 .09-1.313l-.298-.611A3.9 3.9 0 0 0 16.6 14.8H9.399a3.9 3.9 0 0 0-3.523 2.236l-.273.572a1.3 1.3 0 0 0 .09 1.3A9.1 9.1 0 0 0 13 22.583Z" fill="#07484A"/></svg>
